!!!OTL: ICH WILL MICH UMSCHAUEN
!!!ARE: Europa, Mitteleuropa, Deutschland, Schlesien, Goldberg, Neukirch
!!!SCT: E0685B
!!!YEM: Copyright 1995, estate of Helmut Schaffrath.
**kern
*ICvox
*Ivox
*M3/8
*k[f#]
*G:
{8g
=1
8.b
16g
16dd
16b
=2
16b
16a
8a}
{8g
=3
8.b
16g
16dd
16b
=4
4a}
{16a
16b
=5
8cc
8cc
16a
16cc
=6
8b
16dd
16b}
{8g
=7
8.a
16g
16b
16a
=8
4g}
{16a
16b
=9
8cc
8cc
16a
16cc
=10
8b
16dd
16b}
{8g
=11
8.a
16g
16b
16a
=12
4g}
==
!!!AGN: Liebes - Lied, Leid, Klage, Trennung
!!!ONB: ESAC (Essen Associative Code) Database: ERK2
!!!AMT: simple triple
!!!AIN: vox
!!!EED: Helmut Schaffrath
!!!EEV: 1.0
*-
